X: 29608
T: North Clare, The
R: jig
M: 6/8
K: Gmajor
|:B3 BAG|F2 d d^cd|B2 g gfg|eag fed|
B3 BAG|F2 d d^cd|ede fef|agf g2 d:|
|:g3 b2 d|g3 b2 g|fag fed|fag fed|
g3 b2 d|g3 b2 g|fag fef|agf g3:|

